assets/trophy.svg

<svg fill="none" height="62" viewBox="0 0 62 62" width="62" xmlns="http://www.w3.org/2000/svg" xmlns:xlink="http://www.w3.org/1999/xlink"><clipPath id="a"><path d="m0 0h62v62h-62z"/></clipPath><g clip-path="url(#a)" fill="#4f86d9" fill-opacity=".8"><path d="m61.9978 11.8315c-.0618-5.2621-2.7546-8.16024-7.5828-8.16024-1.8687 0-3.6694.43497-4.8465.79789.1172-2.15087.119-3.478542.119-3.544538l.0002-.9207973h-37.3745v.9206753c0 .031485.0031 1.38011.1217 3.54575-1.1771-.36316-2.97943-.79898-4.84996-.79898-4.82801 0-7.5210103 2.89801-7.5827681 8.16024-.060789 5.1768 1.1198781 9.7849 3.5089381 13.6966 2.34558 3.8405 5.34362 6.1547 7.44569 7.4195 3.3668 2.0262 6.7316 2.4514 8.9617 2.4514.5497 0 1.0794-.0259 1.5748-.077.0328-.0034.0632-.0073.0953-.0108 1.0782 1.1612 2.2406 2.0913 3.4826 2.7825.9156.5095 1.5525 1.3979 1.7707 2.4191-1.2346.3842-2.1335 1.5377-2.1335 2.8969 0 1.3898.9401 2.5636 2.2173 2.9208v3.8641h-4.9821v4.0326h-4.9164v7.7702h27.9462v-7.7702h-4.9165v-4.0326h-4.982v-3.8641c1.2773-.3573 2.2174-1.531 2.2174-2.9208 0-1.3594-.8989-2.5127-2.1335-2.8969.2182-1.0212.855-1.9095 1.7707-2.4191 1.239-.6894 2.4094-1.6246 3.4849-2.782.3811.0423.9525.0872 1.667.0872h.0005c2.2298 0 5.5945-.4255 8.961-2.4514 2.102-1.265 5.1001-3.5791 7.4457-7.4195 2.3894-3.9116 3.57-8.5198 3.5092-13.6965zm-14.1668-9.98633c-.0082.33676-.0213.7601-.0414 1.25562h-33.5748c-.0208-.4954-.0347-.91935-.0437-1.25562zm1.2524 8.45393c1.2475-.41525 2.8643-.83399 4.3127-.83399 1.2145 0 2.0889.29668 2.5991.88179.5863.6726.7753 1.8024.5615 3.3584-.8904 6.4817-3.7009 11.5412-7.914 14.2463-1.4675.9424-3.048 1.3317-4.3725 1.47 2.8017-5.8889 4.1577-13.2776 4.8132-19.1225zm-35.2188 6.4135c.9057 4.8576 2.1561 9.0291 3.7167 12.3983.0484.1046.0975.2077.1465.3107-1.3241-.1387-2.9036-.5278-4.3706-1.4697-4.21294-2.7052-7.02352-7.7647-7.91392-14.2463-.21373-1.5562-.02483-2.6861.56163-3.3584.51017-.58517 1.38471-.88173 2.59903-.88173 1.44966 0 3.06796.41935 4.31586.83483.223 1.9934.5278 4.1754.9448 6.4123zm6.0539 16.8451c-1.9966 0-5.0076-.3796-8.0121-2.1877-3.07274-1.8491-10.20456-7.4526-10.06288-19.5168.05014-4.2665 1.92818-6.34047 5.74142-6.34047 2.03934 0 4.05346.6148 4.97416.93908.0459.6177.0974 1.23722.1543 1.85419-1.2515-.36764-2.72608-.68224-4.10946-.68224-1.77014 0-3.1115.50896-3.98701 1.51282-.95167 1.09142-1.28747 2.71282-.99805 4.81932.49576 3.6087 1.53183 6.7983 3.07953 9.48 1.47747 2.5602 3.38309 4.6009 5.66379 6.0651 2.2276 1.4305 4.6371 1.7913 6.3557 1.8258.0058.0101.0118.0198.0176.0299.0942.165.1894.3273.2855.4875.0299.05.0601.0997.0902.1492.0917.1506.1841.2998.2775.446.0351.055.0707.1086.1061.1631.0635.0977.1275.1946.1919.2904.0622.0926.1247.1843.1876.275.0616.0887.1234.177.1856.2641.0292.0409.0579.0834.0871.1239-.0741.0012-.1503.0018-.2285.0018zm23.2136 22.5111v4.0872h-24.2633v-4.0872h3.075 18.1133zm-8.0569-4.0326h3.1404v2.1911h-14.4304v-2.1911h3.1406zm-6.3081-1.8415v-3.7517h4.4666v3.7517zm6.6839-6.785c0 .6572-.5347 1.1918-1.1918 1.1918h-6.5175c-.6572 0-1.1918-.5346-1.1918-1.1918 0-.6571.5346-1.1918 1.1918-1.1918h6.5175c.6572 0 1.1918.5347 1.1918 1.1918zm4.6057-10.5259c-.0102.0132-.0203.0264-.0305.0396-.0906.1172-.1819.2315-.2737.3443-.0225.0274-.0447.0554-.0673.0828-.1009.1225-.2026.2424-.3048.3594-.005.0056-.0096.0114-.0145.0169-1.0268 1.1714-2.1476 2.0991-3.3316 2.7578-1.4593.8118-2.4515 2.2537-2.7245 3.8919h-4.6187c-.2731-1.6383-1.2653-3.0801-2.7246-3.8919-1.1427-.6356-2.1746-1.4853-3.1069-2.5007l-.2253-.2569c-.9154-1.0441-1.7783-2.309-2.5646-3.7594l-.2409-.4445c-3.9594-7.6504-5.157-18.7076-5.5181-24.58096h33.3862c-.0154.25551-.0322.51937-.0509.7934-.0008.01272-.0018.0258-.0027.03851-.0203.29692-.0421.59469-.0652.89271-.0006.00871-.0014.01743-.002.02627-.0736.94453-.1608 1.89258-.2602 2.82936l-.0602.56651c-.669 5.9975-2.0821 13.6381-5.0618 19.3935l-.2631.4851c-.5855 1.0797-1.2135 2.0564-1.8741 2.9163zm10.037-1.5138c-3.0047 1.8082-6.0151 2.1877-8.0116 2.1877-.0001 0-.0003 0-.0005 0-.0783 0-.1545-.0006-.2287-.0018.0012-.0017.0024-.0036.0036-.0052.1195-.165.2372-.3323.3531-.502.0142-.0207.0281-.0419.0423-.0626.098-.1443.1945-.2906.2899-.4383.0246-.0379.0492-.076.0735-.1141.1056-.1658.2101-.3327.3125-.5024.0161-.0266.0318-.0538.0477-.0806.084-.1402.1669-.2817.2488-.4246.0191-.0335.0388-.0654.0581-.0991 1.7187-.0345 4.1281-.3952 6.3557-1.8257 2.2807-1.4645 4.1864-3.5052 5.6638-6.0651 1.5476-2.6818 2.5837-5.8714 3.0796-9.4801.2891-2.1065-.0465-3.728-.9981-4.81927-.8754-1.00399-2.2169-1.51295-3.987-1.51295-1.3833 0-2.8581.31436-4.1094.68212.058-.62908.1077-1.23249.1504-1.80599.0012-.01598.0025-.03209.0037-.04795.9209-.32441 2.935-.93909 4.9742-.93909 3.8132 0 5.6913 2.07398 5.7415 6.34023.1412 12.0642-6.9904 17.6676-10.0631 19.5168z"/><path d="m23.2931 29.8177-1.5379 1.0132c.5251.7972 1.0894 1.5215 1.6773 2.1526l1.3475-1.2553c-.5179-.5559-1.0181-1.1988-1.4869-1.9105z"/><path d="m19.3406 19.6077-1.7953.4096c.883 3.8707 2.0618 7.1202 3.5036 9.6579l1.6011-.9096c-1.3529-2.3813-2.4663-5.4625-3.3094-9.1579z"/><path d="m53.7252 40.3859-.0014-1.8415-1.5544.001-.0011-1.5545-1.8415.0012.0011 1.5546-1.5545.0011.0012 1.8414 1.5545-.001.0011 1.5543 1.8415-.0012-.0011-1.5545z"/><path d="m13.6576 49.9482-.002-1.8415-1.3044.0013-.0013-1.3045-1.8415.0019.0013 1.3045-1.30464.0013.00206 1.8415 1.30438-.0014.0014 1.3047 1.8414-.0019-.0013-1.3046z"/><path d="m7.65192 34.8945h-1.73709v1.8415h1.73709z"/><path d="m18.816 40.3427h-1.7371v1.8415h1.7371z"/><path d="m46.8147 45.883h-1.7371v1.8415h1.7371z"/></g></svg>

<svg width="62" height="62" viewBox="0 0 62 62" fill="none" xmlns="http://www.w3.org/2000/svg">
<g clip-path="url(#clip0)">
<path d="M61.9978 11.8315C61.936 6.5694 59.2432 3.67126 54.415 3.67126C52.5463 3.67126 50.7456 4.10623 49.5685 4.46915C49.6857 2.31828 49.6875 0.990608 49.6875 0.924612L49.6877 0.0038147H12.3132V0.92449C12.3132 0.955975 12.3163 2.3046 12.4349 4.47024C11.2578 4.10708 9.45547 3.67126 7.58494 3.67126C2.75693 3.67126 0.0639297 6.56927 0.0021719 11.8315C-0.0586171 17.0083 1.12205 21.6164 3.51111 25.5281C5.85669 29.3686 8.85473 31.6828 10.9568 32.9476C14.3236 34.9738 17.6884 35.399 19.9185 35.399C20.4682 35.399 20.9979 35.3731 21.4933 35.322C21.5261 35.3186 21.5565 35.3147 21.5886 35.3112C22.6668 36.4724 23.8292 37.4025 25.0712 38.0937C25.9868 38.6032 26.6237 39.4916 26.8419 40.5128C25.6073 40.897 24.7084 42.0505 24.7084 43.4097C24.7084 44.7995 25.6485 45.9733 26.9257 46.3305V50.1946H21.9436V54.2272H17.0272V61.9974H44.9734V54.2272H40.0569V50.1946H35.0749V46.3305C36.3522 45.9732 37.2923 44.7995 37.2923 43.4097C37.2923 42.0503 36.3934 40.897 35.1588 40.5128C35.377 39.4916 36.0138 38.6033 36.9295 38.0937C38.1685 37.4043 39.3389 36.4691 40.4144 35.3117C40.7955 35.354 41.3669 35.3989 42.0814 35.3989C42.0816 35.3989 42.0815 35.3989 42.0819 35.3989C44.3117 35.3989 47.6764 34.9734 51.0429 32.9475C53.1449 31.6825 56.143 29.3684 58.4886 25.528C60.878 21.6164 62.0586 17.0082 61.9978 11.8315ZM47.831 1.84517C47.8228 2.18193 47.8097 2.60527 47.7896 3.10079H14.2148C14.194 2.60539 14.1801 2.18144 14.1711 1.84517H47.831ZM49.0834 10.2991C50.3309 9.88385 51.9477 9.46511 53.3961 9.46511C54.6106 9.46511 55.485 9.76179 55.9952 10.3469C56.5815 11.0195 56.7705 12.1493 56.5567 13.7053C55.6663 20.187 52.8558 25.2465 48.6427 27.9516C47.1752 28.894 45.5947 29.2833 44.2702 29.4216C47.0719 23.5327 48.4279 16.144 49.0834 10.2991ZM13.8646 16.7126C14.7703 21.5702 16.0207 25.7417 17.5813 29.1109C17.6297 29.2155 17.6788 29.3186 17.7278 29.4216C16.4037 29.2829 14.8242 28.8938 13.3572 27.9519C9.14426 25.2467 6.33368 20.1872 5.44328 13.7056C5.22955 12.1494 5.41845 11.0195 6.00491 10.3472C6.51508 9.76203 7.38962 9.46547 8.60394 9.46547C10.0536 9.46547 11.6719 9.88482 12.9198 10.3003C13.1428 12.2937 13.4476 14.4757 13.8646 16.7126ZM19.9185 33.5577C17.9219 33.5577 14.9109 33.1781 11.9064 31.37C8.83366 29.5209 1.70184 23.9174 1.84352 11.8532C1.89366 7.5867 3.7717 5.51273 7.58494 5.51273C9.62428 5.51273 11.6384 6.12753 12.5591 6.45181C12.605 7.06951 12.6565 7.68903 12.7134 8.306C11.4619 7.93836 9.98732 7.62376 8.60394 7.62376C6.8338 7.62376 5.49244 8.13272 4.61693 9.13658C3.66526 10.228 3.32946 11.8494 3.61888 13.9559C4.11464 17.5646 5.15071 20.7542 6.69841 23.4359C8.17588 25.9961 10.0815 28.0368 12.3622 29.501C14.5898 30.9315 16.9993 31.2923 18.7179 31.3268C18.7237 31.3369 18.7297 31.3466 18.7355 31.3567C18.8297 31.5217 18.9249 31.684 19.021 31.8442C19.0509 31.8942 19.0811 31.9439 19.1112 31.9934C19.2029 32.144 19.2953 32.2932 19.3887 32.4394C19.4238 32.4944 19.4594 32.548 19.4948 32.6025C19.5583 32.7002 19.6223 32.7971 19.6867 32.8929C19.7489 32.9855 19.8114 33.0772 19.8743 33.1679C19.9359 33.2566 19.9977 33.3449 20.0599 33.432C20.0891 33.4729 20.1178 33.5154 20.147 33.5559C20.0729 33.5571 19.9967 33.5577 19.9185 33.5577ZM43.1321 56.0688V60.156H18.8688V56.0688H21.9438H40.0571H43.1321ZM35.0752 52.0362H38.2156V54.2273H23.7852V52.0362H26.9258H35.0752ZM28.7671 50.1947V46.443H33.2337V50.1947H28.7671ZM35.451 43.4097C35.451 44.0669 34.9163 44.6015 34.2592 44.6015H27.7417C27.0845 44.6015 26.5499 44.0669 26.5499 43.4097C26.5499 42.7526 27.0845 42.2179 27.7417 42.2179H34.2592C34.9164 42.2179 35.451 42.7526 35.451 43.4097ZM40.0567 32.8838C40.0465 32.897 40.0364 32.9102 40.0262 32.9234C39.9356 33.0406 39.8443 33.1549 39.7525 33.2677C39.73 33.2951 39.7078 33.3231 39.6852 33.3505C39.5843 33.473 39.4826 33.5929 39.3804 33.7099C39.3754 33.7155 39.3708 33.7213 39.3659 33.7268C38.3391 34.8982 37.2183 35.8259 36.0343 36.4846C34.575 37.2964 33.5828 38.7383 33.3098 40.3765H28.6911C28.418 38.7382 27.4258 37.2964 25.9665 36.4846C24.8238 35.849 23.7919 34.9993 22.8596 33.9839L22.6343 33.727C21.7189 32.6829 20.856 31.418 20.0697 29.9676L19.8288 29.5231C15.8694 21.8727 14.6718 10.8155 14.3107 4.94214H47.6969C47.6815 5.19765 47.6647 5.46151 47.646 5.73554C47.6452 5.74826 47.6442 5.76134 47.6433 5.77405C47.623 6.07097 47.6012 6.36874 47.5781 6.66676C47.5775 6.67547 47.5767 6.68419 47.5761 6.69303C47.5025 7.63756 47.4153 8.58561 47.3159 9.52239L47.2557 10.0889C46.5867 16.0864 45.1736 23.727 42.1939 29.4824L41.9308 29.9675C41.3453 31.0472 40.7173 32.0239 40.0567 32.8838ZM50.0937 31.37C47.089 33.1782 44.0786 33.5577 42.0821 33.5577C42.082 33.5577 42.0818 33.5577 42.0816 33.5577C42.0033 33.5577 41.9271 33.5571 41.8529 33.5559C41.8541 33.5542 41.8553 33.5523 41.8565 33.5507C41.976 33.3857 42.0937 33.2184 42.2096 33.0487C42.2238 33.028 42.2377 33.0068 42.2519 32.9861C42.3499 32.8418 42.4464 32.6955 42.5418 32.5478C42.5664 32.5099 42.591 32.4718 42.6153 32.4337C42.7209 32.2679 42.8254 32.101 42.9278 31.9313C42.9439 31.9047 42.9596 31.8775 42.9755 31.8507C43.0595 31.7105 43.1424 31.569 43.2243 31.4261C43.2434 31.3926 43.2631 31.3607 43.2824 31.327C45.0011 31.2925 47.4105 30.9318 49.6381 29.5013C51.9188 28.0368 53.8245 25.9961 55.3019 23.4362C56.8495 20.7544 57.8856 17.5648 58.3815 13.9561C58.6706 11.8496 58.335 10.2281 57.3834 9.13683C56.508 8.13284 55.1665 7.62388 53.3964 7.62388C52.0131 7.62388 50.5383 7.93824 49.287 8.306C49.345 7.67692 49.3947 7.07351 49.4374 6.50001C49.4386 6.48403 49.4399 6.46792 49.4411 6.45206C50.362 6.12765 52.3761 5.51297 54.4153 5.51297C58.2285 5.51297 60.1066 7.58695 60.1568 11.8532C60.298 23.9174 53.1664 29.5208 50.0937 31.37Z" fill="#4F86D9" fill-opacity="0.8"/>
<path d="M23.2931 29.8177L21.7552 30.8309C22.2803 31.6281 22.8446 32.3524 23.4325 32.9835L24.78 31.7282C24.2621 31.1723 23.7619 30.5294 23.2931 29.8177Z" fill="#4F86D9" fill-opacity="0.8"/>
<path d="M19.3406 19.6077L17.5453 20.0173C18.4283 23.888 19.6071 27.1375 21.0489 29.6752L22.65 28.7656C21.2971 26.3843 20.1837 23.3031 19.3406 19.6077Z" fill="#4F86D9" fill-opacity="0.8"/>
<path d="M53.7252 40.3859L53.7238 38.5444L52.1694 38.5454L52.1683 36.9909L50.3268 36.9921L50.3279 38.5467L48.7734 38.5478L48.7746 40.3892L50.3291 40.3882L50.3302 41.9425L52.1717 41.9413L52.1706 40.3868L53.7252 40.3859Z" fill="#4F86D9" fill-opacity="0.8"/>
<path d="M13.6576 49.9482L13.6556 48.1067L12.3512 48.108L12.3499 46.8035L10.5084 46.8054L10.5097 48.1099L9.20506 48.1112L9.20712 49.9527L10.5115 49.9513L10.5129 51.256L12.3543 51.2541L12.353 49.9495L13.6576 49.9482Z" fill="#4F86D9" fill-opacity="0.8"/>
<path d="M7.65192 34.8945H5.91483V36.736H7.65192V34.8945Z" fill="#4F86D9" fill-opacity="0.8"/>
<path d="M18.816 40.3427H17.0789V42.1842H18.816V40.3427Z" fill="#4F86D9" fill-opacity="0.8"/>
<path d="M46.8147 45.883H45.0776V47.7245H46.8147V45.883Z" fill="#4F86D9" fill-opacity="0.8"/>
</g>
<defs>
<clipPath id="clip0">
<rect width="62" height="62" fill="white"/>
</clipPath>
</defs>
</svg>
